X:15869
T:Springlek e Troskari Erik, V Fors
S:Christina E
R:Polska
O:Sweden
M:3/4
A:Dalarna
K:D
f|\
(3aba ga fd|(3fgf ef d>c|d>e f<g f2\
|1  d>c de fd|c2 A3\
:|2 (3dfa g>f de|c2 d3 ::
A|\
"tr"c2 AB GA|F2 DF A2|E2 CE D>c|d>e fg f2\
|1  d>c de fd|c2 A3 \
:|2 (3dfa g>f de|c2 d3:|
